src/assets/img/upload.svg

<svg width="16" height="16" viewBox="0 0 16 16" fill="none" xmlns="http://www.w3.org/2000/svg">
<path fill-rule="evenodd" clip-rule="evenodd" d="M7.86601 0L12.2355 4.03339L11.4129 4.92452L8.48919 2.22567V12.3618H7.27645V2.30464L4.67336 4.90772L3.81583 4.05019L7.86601 0ZM1.21274 14.7873V7.51081H0V16H15.7656V7.51081H14.5529V14.7873H1.21274Z" fill="#FF868E"/>
</svg>

<svg width="16" height="16" viewBox="0 0 16 16" fill="none" xmlns="http://www.w3.org/2000/svg"><path fill-rule="evenodd" clip-rule="evenodd" d="m7.866 0 4.37 4.033-.823.892-2.924-2.7v10.137H7.276V2.305L4.673 4.908l-.857-.858L7.866 0zM1.213 14.787V7.511H0V16h15.766V7.51h-1.213v7.277H1.213z" fill="#FF868E"/></svg>
